src/assets/icons/real-estate/sparkle.svg

<svg width="48" height="48" viewBox="0 0 48 48" fill="none" xmlns="http://www.w3.org/2000/svg">
<rect width="48" height="48" fill="white"/>
<path fill-rule="evenodd" clip-rule="evenodd" d="M24 8C24.632 8 25.1429 8.51086 25.1429 9.14286V18.2857C25.1429 18.9177 24.632 19.4286 24 19.4286C23.368 19.4286 22.8571 18.9177 22.8571 18.2857V9.14286C22.8571 8.51086 23.368 8 24 8ZM31.4151 17.7278C31.1225 17.7278 30.8299 17.6158 30.6071 17.3929C30.1602 16.9461 30.1602 16.2238 30.6071 15.7769L33.6974 12.6866C34.1442 12.2398 34.8677 12.2398 35.3134 12.6866C35.7602 13.1323 35.7602 13.8558 35.3134 14.3026L32.2231 17.3929C32.0002 17.6158 31.7077 17.7278 31.4151 17.7278ZM38.8571 22.8571C39.4891 22.8571 40 23.368 40 24C40 24.632 39.4891 25.1429 38.8571 25.1429H29.7143C29.0823 25.1429 28.5714 24.632 28.5714 24C28.5714 23.368 29.0823 22.8571 29.7143 22.8571H38.8571ZM32.2232 30.6072L35.3135 33.6975C35.7603 34.1443 35.7603 34.8678 35.3135 35.3135C35.0906 35.5363 34.7981 35.6483 34.5055 35.6483C34.2129 35.6483 33.9203 35.5363 33.6975 35.3135L30.6072 32.2232C30.1603 31.7763 30.1603 31.0541 30.6072 30.6072C31.0541 30.1603 31.7763 30.1603 32.2232 30.6072ZM24 28.5714C24.632 28.5714 25.1429 29.0823 25.1429 29.7143V38.8571C25.1429 39.4891 24.632 40 24 40C23.368 40 22.8571 39.4891 22.8571 38.8571V29.7143C22.8571 29.0823 23.368 28.5714 24 28.5714ZM15.7767 30.6072C16.2235 30.1603 16.9458 30.1603 17.3927 30.6072C17.8395 31.0541 17.8395 31.7763 17.3927 32.2232L14.3024 35.3135C14.0795 35.5363 13.787 35.6483 13.4944 35.6483C13.2018 35.6483 12.9093 35.5363 12.6864 35.3135C12.2395 34.8678 12.2395 34.1443 12.6864 33.6975L15.7767 30.6072ZM18.2857 22.8571C18.9177 22.8571 19.4286 23.368 19.4286 24C19.4286 24.632 18.9177 25.1429 18.2857 25.1429H9.14286C8.51086 25.1429 8 24.632 8 24C8 23.368 8.51086 22.8571 9.14286 22.8571H18.2857ZM15.7767 17.3929L12.6864 14.3026C12.2395 13.8558 12.2395 13.1323 12.6864 12.6866C13.1333 12.2398 13.8555 12.2398 14.3024 12.6866L17.3927 15.7769C17.8395 16.2238 17.8395 16.9461 17.3927 17.3929C17.1698 17.6158 16.8773 17.7278 16.5847 17.7278C16.2921 17.7278 15.9995 17.6158 15.7767 17.3929Z" fill="#253238"/>
</svg>

<svg width="48" height="48" viewBox="0 0 48 48" fill="none" xmlns="http://www.w3.org/2000/svg"><path fill-rule="evenodd" clip-rule="evenodd" d="M24 8c.632 0 1.143.51 1.143 1.143v9.143a1.142 1.142 0 11-2.286 0V9.143C22.857 8.51 23.368 8 24 8zm7.415 9.728a1.142 1.142 0 01-.808-1.95l3.09-3.091a1.142 1.142 0 111.616 1.616l-3.09 3.09a1.14 1.14 0 01-.808.335zm7.442 5.13a1.142 1.142 0 110 2.285h-9.143a1.142 1.142 0 110-2.286h9.143zm-6.634 7.75l3.09 3.09a1.142 1.142 0 11-1.616 1.615l-3.09-3.09a1.142 1.142 0 111.616-1.616zM24 28.57c.632 0 1.143.511 1.143 1.143v9.143a1.142 1.142 0 11-2.286 0v-9.143c0-.632.511-1.143 1.143-1.143zm-8.223 2.036a1.142 1.142 0 111.616 1.616l-3.09 3.09a1.14 1.14 0 01-1.617 0 1.142 1.142 0 010-1.616l3.09-3.09zm2.509-7.75a1.142 1.142 0 110 2.286H9.143a1.142 1.142 0 110-2.286h9.143zm-2.51-5.464l-3.09-3.09a1.142 1.142 0 111.616-1.616l3.09 3.09a1.142 1.142 0 11-1.615 1.616z" fill="#253238"/></svg>
